X: 37442
T: Sliabh Lucan, The
R: polka
M: 2/4
K: Gmajor
|:A|Bd de|dB AG|de/d/ BG|AG E>G|
Bd- de|dB A^G/A/|de/d/ BG|AG G:|
|:f|g2 dg|ed B/c/B/A/|G>A B/c/d|ed de/f/|
[1 g2 d>g|ed BA|Gg gf|e2 e:|
[2 g2 fg/f/|ef/e/ d2|e/f/g/e/ dB|A2- A||

